X: 262
T:Royal Quickstep. JaW.261
M:6/8
Q:110
S:James Winder Ms, Lancashire, 1835-41
R:Quickstep
O:England
A:Wyresdale,Lancashire
H:1/8
Z:vmp.Chris Partington, Aug 2004
K:G
B/c/|d2f B2c|d2B G2B|ABA c2A|d2B G2B/c/|!
d2f B2d|d2B G2B|AcB AGF|G3 "sic"G2G,2:|!
|:g|fef def|gfe def|fef def|g2z z2g|!
fef def|gfe def|gag fef|g2:|]
